X: 191
T: Orotaba Waltz
B: australian dance tunes
B: kameruka bush dance
M:3/4
L:1/8
R: Waltz
Q: 1/4=100
K:G
V:1 
dc|"G"B2 D2 D2|G4 B2|"Am"A2 E2 E2|A4 G2|"D7"F2 A2 c2| f4 ef|
"G"e2 d2 d2|d4 dc|B2 D2 D2|G4 B2|"Am"A2 E2 E2|A4 de|
"D7"f2 e2 d2|c2 F3 G|"G"G3 A G2|G4 BA|G2 B2 c2|
"G"d2 g3 g|"D7"f2 A2 B2|c4 fg|f2 A2 B2|c4 ef|"G"e2 d2 d2|
d4 BA|G2 B2 c2|d2 g3 g|"D7"f2 A2 B2|c4 de|f2 e2 d2|c2 F3 G|"G"G3 A G2|G4||
% abcbook-tune_id 62a07850a2d465aa2125b1b5


% abcbook-boost 0
% abcbook-tablature 
% abcbook-transpose 
% abcbook-lastupdated 1665404008213
% abcbook-soundfonts 
% abcbook-repeats 3


